X: 23738
T: Little Beggarman, The
R: reel
M: 4/4
K: Amixolydian
AF|:"A"E2A2 ABcd|~e3c "D"d2cd|"A"e2A2 ABcA|"E"BGEF "G" G2AF|
"A"E2A2 ABcd|~e3c "D"d2cd|"A"e2a2 "D"afed|1 "E"c2A2 "A"A2AF:|2 "E"c2A2 "A"A2ef||
|:"G"gfgf gfef|gfec "D"d2cd|"A"e2A2 ABcA|"E"BGEF "G"G2AF|
"A"E2A2 ABcd|~e3c "D"d2cd|"A"e2a2 "D"afed|1 "E"c2A2 "A"A2ef:|2 "E"c2A2 "A"A2AF||

